polaris-icons/icons/MetaobjectReferenceIcon.svg

<svg xmlns="http://www.w3.org/2000/svg" viewBox="0 0 20 20">
  <path fill-rule="evenodd" d="M15.25 3.5V5H15.75C16.3023 5 16.75 5.44772 16.75 6V10C16.75 10.0863 16.7391 10.1701 16.7185 10.25C16.7391 10.3299 16.75 10.4137 16.75 10.5V11.25C16.75 11.6642 16.4142 12 16 12C15.5858 12 15.25 11.6642 15.25 11.25V11H3.25V14.75H9.5C9.91421 14.75 10.25 15.0858 10.25 15.5C10.25 15.9142 9.91421 16.25 9.5 16.25H2.75C2.19771 16.25 1.75 15.8023 1.75 15.25V10.5C1.75 9.94772 2.19772 9.5 2.75 9.5H3.25V8C3.25 7.44772 3.69772 7 4.25 7H6.75C7.30228 7 7.75 7.44772 7.75 8V9.5H9.25V6C9.25 5.44772 9.69772 5 10.25 5H10.75V3.5C10.75 2.94772 11.1977 2.5 11.75 2.5H14.25C14.8023 2.5 15.25 2.94772 15.25 3.5ZM13.75 4V5H12.25V4H13.75ZM10.75 6.5V9.5H15.25V6.5H10.75ZM6.25 9.5H4.75V8.5H6.25V9.5Z"/>
  <path d="M15.25 15C15.9404 15 16.5 15.5596 16.5 16.25V16.75C16.5 17.1642 16.8358 17.5 17.25 17.5C17.6642 17.5 18 17.1642 18 16.75V16.25C18 14.7312 16.7688 13.5 15.25 13.5H13.8107L14.2803 13.0303C14.5732 12.7374 14.5732 12.2626 14.2803 11.9697C13.9874 11.6768 13.5126 11.6768 13.2197 11.9697L11.4697 13.7197C11.329 13.8603 11.25 14.0511 11.25 14.25C11.25 14.4489 11.329 14.6397 11.4697 14.7803L13.2197 16.5303C13.5126 16.8232 13.9874 16.8232 14.2803 16.5303C14.5732 16.2374 14.5732 15.7626 14.2803 15.4697L13.8107 15H15.25Z"/>
</svg>

<svg xmlns="http://www.w3.org/2000/svg" viewBox="0 0 20 20"><path fill-rule="evenodd" d="M15.25 3.5v1.5h.5c.552 0 1 .448 1 1v4c0 .086-.01.17-.032.25.021.08.032.164.032.25v.75c0 .414-.336.75-.75.75s-.75-.336-.75-.75v-.25h-12v3.75h6.25c.414 0 .75.336.75.75s-.336.75-.75.75h-6.75c-.552 0-1-.448-1-1v-4.75c0-.552.448-1 1-1h.5v-1.5c0-.552.448-1 1-1h2.5c.552 0 1 .448 1 1v1.5h1.5v-3.5c0-.552.448-1 1-1h.5v-1.5c0-.552.448-1 1-1h2.5c.552 0 1 .448 1 1Zm-1.5.5v1h-1.5v-1h1.5Zm-3 2.5v3h4.5v-3h-4.5Zm-4.5 3h-1.5v-1h1.5v1Z"/><path d="M15.25 15c.69 0 1.25.56 1.25 1.25v.5c0 .414.336.75.75.75s.75-.336.75-.75v-.5c0-1.519-1.231-2.75-2.75-2.75h-1.44l.47-.47c.293-.293.293-.767 0-1.06-.293-.293-.767-.293-1.06 0l-1.75 1.75c-.141.14-.22.331-.22.53s.079.39.22.53l1.75 1.75c.293.293.767.293 1.06 0 .293-.293.293-.767 0-1.06l-.47-.47h1.44Z"/></svg>
